icons/euro-gdpr2-fr.svg

<svg xmlns="http://www.w3.org/2000/svg" xml:space="preserve" width="512" height="512" style="fill-rule:evenodd;clip-rule:evenodd;stroke-linejoin:round;stroke-miterlimit:2"><path d="M455.829 359.253h26.027L460.8 375.189l8.256 25.6-21.632-15.786-21.76 15.786 8.256-25.6-21.483-15.936h26.752l8.384-25.6zM242.624 41.387 221.013 25.6h26.731L256 0l8.256 25.6h26.731l-21.611 15.787 8.235 25.749L256 51.2l-21.611 15.936zM269.376 486.4l8.235 25.6L256 496.213 234.389 512l8.235-25.6-21.611-15.787h26.731L256 444.864l8.256 25.749h26.731zM34.987 273.067l-21.611 15.936 8.235-25.6L0 248.043h26.731l8.256-25.6 8.256 25.6h26.88l-21.76 15.914 8.234 25.6-21.61-15.914zM158.869 71.104l8.235 25.6-21.611-15.637-21.61 15.786 8.234-25.6-21.61-15.786h26.73l8.256-25.6 8.256 25.6h26.731zM56.896 136.811l8.235-25.6 8.405 25.6h26.027l-21.632 15.936 8.256 25.6-21.76-15.936-21.76 15.936 8.256-25.6-21.632-15.936zM29.291 359.253h27.605l8.235-25.6 8.405 25.6h26.027l-21.632 15.936 8.256 25.6-21.76-15.786-21.76 15.786 8.256-25.6zm102.826 97.28-21.61-15.637h26.73l8.256-25.6 8.256 25.6h26.731l-21.611 15.637 8.235 25.6-21.611-15.786-21.61 15.786zm358.272-192.576 8.235 25.6-21.611-15.914-21.909 15.914 8.256-25.6-21.76-15.914h27.733l8.256-25.6 8.235 25.6H512zM353.131 71.104 331.52 55.467h26.731l8.256-25.6 8.256 25.6h26.73l-21.61 15.637 8.234 25.6-21.61-15.637-21.611 15.786 8.235-25.6zm85.333 65.579 8.405-25.6 8.235 25.6h26.752L460.8 152.747l8.256 25.6-21.632-15.936-21.76 15.936 8.256-25.6-21.483-15.936zm-36.971 304.213-21.61 15.637 8.234 25.6-21.61-15.786-21.611 15.786 8.235-25.6-21.611-15.637h26.731l8.256-25.6 8.256 25.6zm-69.857-219.84c20.421 6.278 37.817 22.578 37.817 46.289v90.763c0 30.859-29.535 49.163-56.726 49.163H199.273c-27.191 0-56.726-18.304-56.726-49.163v-90.763c0-23.711 17.396-40.011 37.817-46.289v-40.692c0-41.492 34.144-75.635 75.636-75.635s75.636 34.143 75.636 75.635zm-24.694 69.156v46.49h20.215q3.634 0 8.11-1.268 3.274-.92 6.128-3.695t4.46-6.881q1.607-4.107 1.607-11.559 0-4.758-1.081-9.007-1.082-4.25-3.485-7.452t-6.082-4.915-9.657-1.713zm13.607 10.529h3.394q5.288 0 7.569 2.727 2.283 2.727 2.283 10.116 0 5.581-1.021 8.071-1.022 2.489-2.823 3.488-1.803.999-6.068.999h-3.334zm-156.011 35.961h13.667v-18.869h1.201q1.863 0 3.334 1.079 1.082.824 2.463 3.583l7.269 14.207h15.379l-6.578-13.473q-.48-1.015-1.907-2.887t-2.178-2.444q-1.111-.856-3.544-1.714 3.033-.729 4.775-1.839a12.6 12.6 0 0 0 4.296-4.551q1.562-2.807 1.562-6.675 0-4.44-2.043-7.532t-5.376-4.233q-3.335-1.142-9.642-1.142h-22.678zm13.667-27.653v-9.45h5.977q3.725 0 5.076 1.205 1.352 1.205 1.352 3.457 0 1.522-.856 2.695-.857 1.173-2.208 1.459-2.673.634-3.604.634zM256 142.547c-20.746 0-37.818 17.071-37.818 37.817v37.818h75.636v-37.818c0-20.746-17.072-37.817-37.818-37.817m6.278 147.665v46.49h13.666v-17.251h7.45q8.229 0 12.24-3.964 4.01-3.964 4.009-11.004 0-6.85-3.679-10.561-3.68-3.71-11.069-3.71zm13.666 19.82v-10.37h3.875q3.814 0 5.197 1.523 1.381 1.521 1.381 3.71 0 2.251-1.592 3.694-1.591 1.443-5.526 1.443zm-42.712 9.831h9.101v4.376q-2.673 1.681-4.746 2.379a13.6 13.6 0 0 1-4.355.697q-4.806 0-7.494-3.234-2.688-3.236-2.688-10.782 0-7.104 2.658-10.386t7.134-3.282q3.003 0 4.941 1.395 1.936 1.396 2.748 4.027l13.126-2.473q-1.201-4.503-3.589-7.437-2.388-2.933-6.008-4.328t-10.918-1.396q-7.569 0-12.045 2.252-5.737 2.918-8.71 8.546-2.974 5.63-2.974 13.24 0 7.23 2.718 12.812t7.66 8.404q4.941 2.822 12.78 2.822 6.369 0 11.009-1.57t10.678-5.914v-19.82h-21.026z"/></svg>

<?xml version="1.0" encoding="UTF-8" standalone="no"?><!DOCTYPE svg PUBLIC "-//W3C//DTD SVG 1.1//EN" "http://www.w3.org/Graphics/SVG/1.1/DTD/svg11.dtd"><svg width="512px" height="512px" version="1.1" xmlns="http://www.w3.org/2000/svg" xmlns:xlink="http://www.w3.org/1999/xlink" xml:space="preserve" xmlns:serif="http://www.serif.com/" style="fill-rule:evenodd;clip-rule:evenodd;stroke-linejoin:round;stroke-miterlimit:2;"><path d="M455.829,359.253L481.856,359.253L460.8,375.189L469.056,400.789L447.424,385.003L425.664,400.789L433.92,375.189L412.437,359.253L439.189,359.253L447.573,333.653L455.829,359.253ZM242.624,41.387L221.013,25.6L247.744,25.6L256,0L264.256,25.6L290.987,25.6L269.376,41.387L277.611,67.136L256,51.2L234.389,67.136L242.624,41.387ZM269.376,486.4L277.611,512L256,496.213L234.389,512L242.624,486.4L221.013,470.613L247.744,470.613L256,444.864L264.256,470.613L290.987,470.613L269.376,486.4ZM34.987,273.067L13.376,289.003L21.611,263.403L0,248.043L26.731,248.043L34.987,222.443L43.243,248.043L70.123,248.043L48.363,263.957L56.597,289.557L34.987,273.643L34.987,273.067ZM158.869,71.104L167.104,96.704L145.493,81.067L123.883,96.853L132.117,71.253L110.507,55.467L137.237,55.467L145.493,29.867L153.749,55.467L180.48,55.467L158.869,71.104ZM56.896,136.811L65.131,111.211L73.536,136.811L99.563,136.811L77.931,152.747L86.187,178.347L64.427,162.411L42.667,178.347L50.923,152.747L29.291,136.811L56.896,136.811ZM29.291,359.253L56.896,359.253L65.131,333.653L73.536,359.253L99.563,359.253L77.931,375.189L86.187,400.789L64.427,385.003L42.667,400.789L50.923,375.189L29.291,359.253ZM132.117,456.533L110.507,440.896L137.237,440.896L145.493,415.296L153.749,440.896L180.48,440.896L158.869,456.533L167.104,482.133L145.493,466.347L123.883,482.133L132.117,456.533ZM490.389,263.957L498.624,289.557L477.013,273.643L455.104,289.557L463.36,263.957L441.6,248.043L469.333,248.043L477.589,222.443L485.824,248.043L512,248.043L490.389,263.957ZM353.131,71.104L331.52,55.467L358.251,55.467L366.507,29.867L374.763,55.467L401.493,55.467L379.883,71.104L388.117,96.704L366.507,81.067L344.896,96.853L353.131,71.253L353.131,71.104ZM438.464,136.683L446.869,111.083L455.104,136.683L481.856,136.683L460.8,152.747L469.056,178.347L447.424,162.411L425.664,178.347L433.92,152.747L412.437,136.811L438.464,136.683ZM401.493,440.896L379.883,456.533L388.117,482.133L366.507,466.347L344.896,482.133L353.131,456.533L331.52,440.896L358.251,440.896L366.507,415.296L374.763,440.896L401.493,440.896ZM331.636,221.056C352.057,227.334 369.453,243.634 369.453,267.345L369.453,358.108C369.453,388.967 339.918,407.271 312.727,407.271L199.273,407.271C172.082,407.271 142.547,388.967 142.547,358.108L142.547,267.345C142.547,243.634 159.943,227.334 180.364,221.056L180.364,180.364C180.364,138.872 214.508,104.729 256,104.729C297.492,104.729 331.636,138.872 331.636,180.364L331.636,221.056ZM306.942,290.212L306.942,336.702L327.157,336.702C329.58,336.702 332.283,336.279 335.267,335.434C337.45,334.821 339.492,333.589 341.395,331.739C343.297,329.889 344.784,327.595 345.855,324.858C346.926,322.12 347.462,318.267 347.462,313.299C347.462,310.127 347.102,307.125 346.381,304.292C345.66,301.459 344.498,298.975 342.896,296.84C341.294,294.705 339.267,293.066 336.814,291.925C334.361,290.783 331.142,290.212 327.157,290.212L306.942,290.212ZM320.549,300.741L323.943,300.741C327.468,300.741 329.991,301.65 331.512,303.468C333.034,305.286 333.795,308.658 333.795,313.584C333.795,317.305 333.455,319.995 332.774,321.655C332.093,323.314 331.152,324.477 329.951,325.143C328.749,325.809 326.727,326.142 323.883,326.142L320.549,326.142L320.549,300.741ZM164.538,336.702L178.205,336.702L178.205,317.833L179.406,317.833C180.648,317.833 181.759,318.193 182.74,318.912C183.461,319.461 184.282,320.656 185.203,322.495L192.472,336.702L207.851,336.702L201.273,323.229C200.953,322.552 200.317,321.59 199.366,320.342C198.414,319.093 197.689,318.279 197.188,317.898C196.447,317.327 195.266,316.756 193.644,316.184C195.666,315.698 197.258,315.085 198.419,314.345C200.242,313.182 201.673,311.665 202.715,309.794C203.756,307.923 204.277,305.698 204.277,303.119C204.277,300.159 203.596,297.649 202.234,295.587C200.872,293.526 199.08,292.115 196.858,291.354C194.635,290.593 191.421,290.212 187.216,290.212L164.538,290.212L164.538,336.702ZM178.205,309.049L178.205,299.599L184.182,299.599C186.665,299.599 188.357,300.001 189.258,300.804C190.159,301.607 190.61,302.76 190.61,304.261C190.61,305.275 190.325,306.174 189.754,306.956C189.183,307.738 188.447,308.225 187.546,308.415C185.764,308.838 184.563,309.049 183.942,309.049L178.205,309.049ZM256,142.547C235.254,142.547 218.182,159.618 218.182,180.364L218.182,218.182L293.818,218.182L293.818,180.364C293.818,159.618 276.746,142.547 256,142.547ZM262.278,290.212L262.278,336.702L275.944,336.702L275.944,319.451L283.394,319.451C288.88,319.451 292.96,318.129 295.634,315.487C298.307,312.844 299.643,309.176 299.643,304.483C299.643,299.916 298.417,296.396 295.964,293.922C293.511,291.449 289.821,290.212 284.895,290.212L262.278,290.212ZM275.944,310.032L275.944,299.662L279.819,299.662C282.362,299.662 284.094,300.17 285.016,301.185C285.937,302.199 286.397,303.436 286.397,304.895C286.397,306.396 285.867,307.627 284.805,308.589C283.744,309.551 281.902,310.032 279.279,310.032L275.944,310.032ZM233.232,319.863L242.333,319.863L242.333,324.239C240.551,325.36 238.969,326.153 237.587,326.618C236.206,327.083 234.754,327.315 233.232,327.315C230.028,327.315 227.53,326.237 225.738,324.081C223.946,321.924 223.05,318.33 223.05,313.299C223.05,308.563 223.936,305.101 225.708,302.913C227.48,300.725 229.858,299.631 232.842,299.631C234.844,299.631 236.491,300.096 237.783,301.026C239.074,301.956 239.99,303.299 240.531,305.053L253.657,302.58C252.856,299.578 251.66,297.099 250.068,295.143C248.476,293.188 246.473,291.745 244.06,290.815C241.647,289.884 238.008,289.419 233.142,289.419C228.096,289.419 224.081,290.17 221.097,291.671C217.273,293.616 214.369,296.465 212.387,300.217C210.404,303.97 209.413,308.383 209.413,313.457C209.413,318.277 210.319,322.548 212.131,326.269C213.943,329.99 216.497,332.791 219.791,334.673C223.085,336.554 227.345,337.495 232.571,337.495C236.817,337.495 240.486,336.972 243.58,335.925C246.674,334.879 250.233,332.907 254.258,330.011L254.258,310.191L233.232,310.191L233.232,319.863Z"/></svg>
